X: 11878
T: Emir's Delight, The
R: polka
M: 2/4
K: Gmajor
|:Bd d>c|BG G>D|DG Bd|d/c/B/c/ A2|
Bd d/e/d/c/|Bd g>g|ad fa|g2 g2:|
g/f/g/a/ ba|gd BG|DG Bd|d/c/B/c/ A2|
g/f/g/a/ ba|gd Bd|cB/c/ dF|AG G2|
g/f/g/a/ ba|gd BG|DG Bd|d/c/B/c/ A2|
BG B>d|cA A>a|ad fa|g2 g2||

